X:18949
T:Xiraldilla (CT 020)
R:Xiraldilla
C:Tradicional
S:Música Tradicional Asturiana, (C) Tello & Tito. Asturies, 2001.
S:http://pagina.de/MusTradAst <telloytito@asturies.org>
N:Xiraldilla, dictada por Teresa Pérez Cuenya. de 52 años, de Bedriñana, ayuntamiento de Maliayo.
O:Bedriñana (Maliayo)
A:Asturies
Z:Cancioneru de Torner 020
M:3/8
L:1/8
Q:1/4=88
W:Quítate de la esquina,
W:majo que llueve;
W:deja correr el agua
W:por donde suele.
W:
W:Yo si estoy en la esquina
W:no estoy por ella,
W:que tienes unos ojos
W:de pedigüeña.
W:
W:Yo si soy pedigüeña,
W:¿qué te he pedido?
W:que tienes unos ojos
W:de relamido.
W:
W:Yo si soy relamido
W:tú eres muñeca,
W:que todos los domingos
W:te pones hueca.
W:
W:Yo si me pongo hueca
W:puedo ponerme,
W:que el galán que me ronda
W:pesetas tiene.
W:
W:Pues si tiene pesetas
W:que las enseñe;
W:que te compre un vestido
W:de seda verde.
W:
W:Y después de comprado
W:pégale fuego
W:y verás como quema
W:el vestido nuevo.
K:C
|d d/c/_B/c/|d d2|cdd|c _B2|d d/c/_B/c/|d c2|dc_B|A G2 :||


